X:1
T:Runaway West-Bound!
T:Runaway West-Bound!
T:Nefarious Pirates of Ironscale
%%score [ 1 2 ]
L:1/8
Q:1/4=150
M:4/4
K:C
V:1 treble nm="Piano 1"
V:2 bass nm="Piano 2"
V:1
"^\n"!mf! z4 z d e2 |!f! [Gcg]2!mp! aa ee!f!dG |{d} [ABe]2 d G2 G3 |{d} [EAe]2 ed cc [Gg]2 | %4
 [Dc]2 [DG]2 GE[_E_G] z | [A,CDF]4- [A,CDF][FA] [Fc]2 |{d} [GBe]2 [Gd]4 [GAc]d | %7
 [DEAe]2 AE [DA]EDE |{G} [^CEA]2 [=CEG] [CEG]3 ae | [GAd]2 [Ac] [Ac]3 ae | [GBd]2 [Ge] [Ge]2 Gge | %11
 [ABb]2 [Gg]2 [cc']2 [Bb]2 | [Geg]2 d2 egb_b | [ca]2 ed g[ce]dg | [GBde]dg[Gd] e[Gd]cg | %15
 [ca] [aa']2 [EAc]4 B | [Ec]2 [EB][CA] z2 ab |!mf! c'6 bc' | g'6 f'e' | d'6 c'b | c'2 g2 f2 ab | %21
 !arpeggio![cc']6 bc' | !arpeggio![gg']6 [ff'][ee'] | [ff'] [deae']3- [deae']2 [dd'][ee'] | %24
 [^ce^c']2 [ca] [ca]2 [cg][ca]b | [cgc']3 c2 [Bb][cc'] z | [gg']4- [gg'][ff'] [ee']2 | %27
 [dgd']3 [GB]3 [ee'][Bb] | [cc']2 ae d2 e2 | [Gce]2 [Aca]2 [Aca]2 [Ae]G | %30
 [DBd]2 [Gg]2 [GBd]2 [Bb]2 | [Ada]2 ea [dd']"_cresc."a[dd'][ee'] | %32
[Q:1/4=134]"^Allegro" (9:8:9[dd'][ee'][aa'][e'e''][a'a''][Aa][Bb][cc'][dd'] | %33
[Q:1/4=150]"^Moderato"!f! [eac'e']2 [ec'e'] [dc']2 [ac'a']2 [dfad']- | [dfad']2 [dfad']3 [cfac']3 | %35
 [cdgd']2 [cdgd']3 [cgc']2 [Bdgb]- | [Bdgb]2 [Bdgb]2 [Aa][Bb][cc'][dd'] | %37
 [eac'e']2 [eac'e'] [ed']2 [ac'a']2 [dfd']- | [dfd']2 [dfd']3 [cfc']3 | %39
 [gc'd'g']2 [gg'] [dd']2 [gg']2 [dd']- | [dd'] [cc']2 [Bb]3 cd | %41
 !arpeggio![Acg]2 [Ag] c2 !arpeggio![cg]2 !arpeggio![FAc]- | [FAc]2 [FAc]3 [FAc]dd | %43
 cBdg bc[cc'][Bb]- | [Bb]2 [GB]2 ABcd | [Ace]2 [Ace] d2 [Aca]2 !arpeggio![FAd]- | %46
 [FAd]2 [Fd]3 [FAc]3 | [dgc']bdg [gg'][dc'][cb][gg']- | [gg']c'bc' edea | %49
!mf!{/d'} [eae'][dgd'][eae'] [aa']3 [eae'][dgd'] | [egbe'] [gg']3{/d'} [eae'][dgd'] [eae']2 | %51
 [eae'][dgd'][eae'] [aa']3 [eae'][dgd'] | [eae'] [bb']3{/d'} [eae'][dgd'] [eae']2 | %53
 [eae'][dgd'][eae'] [aa']3{/d'} [eae'][dgd'] | [eae'] [gg']3 [eae'][dgd'] [eae']2 | %55
 [eae'][cgd'][eae'] [aa']3 [eae'][dgd'] | [eae'][aa'][gg'][ee'] [dd'][cc'][Aa]e | %57
{/d'} [eac'e'][dgd'][eac'e'][aa'] c'2 [eac'e'][dgd'] | [eabe'][ga'] b2 [eabe'][ga'] [eabe']2 | %59
 [egae'][dgd'][egae'][aa'] g2 [egae'][dgd'] | [eae'] [bb']3{/d'} [eae'][dgd'] [eae']2 | %61
 [eac'e'][dgd'][eac'e'][aa'] c'2{/d'} [eac'e'][dgd'] | [eabe'][gg'] b2 [eabe'][dgd'] [eabe']2 | %63
 [egae'][dgd'][egae'][ag'] g2 [egae'][dgd'] | [eae'][aa'][gg'][ae'] [gd'][gc'][da]e | %65
 [ec'e'][ec'e'][ec'e'] [aa']3 [eac'e'][dgbd'] | [egbe'][gg'] [dgb]2 [eae'][dgd'] [eae']2 | %67
"_cresc."{/f'} [gac'g']3 !arpeggio![cgc']3{/e'} [fac'f']2- | %68
 [fac'f'] !arpeggio![egbe']3 [dad']g[faf']!f!a | [eac'e'][egd'][eac'e'] [aa']3 [eae'][dgd'] | %70
 [degbd']deg !arpeggio![gbg']4{ba} | !arpeggio![cec']dea c2 [ea][dg] | %72
 [ea][dd'][ee']a [dgd'][cc'][Aca][EAe] | [Ace][cga][ce][ce] [Acga][ce][ce][Bdga] | %74
 [Bde][ga] [de]2 dedA | [ce][cga][ce][Ae] [cga][Ae][ce][dga] | %76
 [Bde][dga][ec']a [ead'][gd'][cea][Ae] | [Ace][cga][ce][ce] [ga][ce]e[dga] | %78
 [Be][dga]eg{/a} !^![ab]2 [dg]2 | [Aca][Adg][ded'][cac'] [Bb][cc'][ceb][da] | %80
 [Beg][da][gg'][ee'] [dd'][cc'][Aa]e |"_dim." [ae']e'd'e' d'e'd'a'- | a'8 |] %83
V:2
!mf! z8 | [F,,F,]2 F, [A,C]2 C,F,[G,B,] | [G,,G,]2 G,[B,D] G,[B,D]G,G,, | %3
 [A,,A,]2 E, [A,CE]2 [A,E][A,CE]E, | E,,2 E, [G,B,]2 [E,G,B,][_E,_G,_B,] z | %5
 D,,2 D,[F,A,C] F,[D,A,C][F,A,]D, | F,,2 D,[G,B,D] G,D,[G,B,]G,, | A,,2 A,,[E,A,] [E,A,]2 A,2 | %8
 A,,3 [E,A,]2 A,,A,E, | F,,2 F, [F,A,C]2 [F,A,C]2 [F,A,C] | G,,2 D,[G,B,D] G, [B,D]2 [G,B,D] | %11
 A,,2 E, [A,CE]2 [A,C]E,A,, | E,,2 E, [G,B,D]2 [E,G,B,E][_E,_G,_B,_E] z | %13
 D,,2 D, [F,A,C]2 [F,A,][F,A,C]D, | G,,2 D,[G,B,D] [G,B,]D,[G,B,D]G,, | %15
 A,,2 A,,[E,G,] A,,E,[E,A,]A,, | [E,A,C]2 [A,,E,][A,,E,] z [F,A,C] [F,A,C]2 | %17
 F,,2 C, [F,A,]2 C,F,A, | G,,2 C, [G,B,D]2 G, [B,D]2 | E,,2 E, [G,B,D]2 E,G,D | F,,C,F,G, CG,F,C, | %21
 F,,C,F, [A,C]2 C,[A,C]F, | G,,2 D, [G,B,]2 D,G,B, | G, A,,2 [A,DE] A,E,[A,DE][A,DE] | %24
 A,,2 [A,,E,A,] [A,,E,A,]2 A,,[E,A,]A,, | F,,A,C[FG] A,[A,CG][A,CG] z | %26
 G,,2 G,[B,DG] G,[B,DG][B,DG]G, | E,,2 E,[B,D] E,[B,D][B,D]E, | F,,2 F,[A,C] F,[A,C]A,C, | %29
 [F,,F,]2 F, [A,CF]2 [A,C]2 [C,A,] |"_cresc." [G,,G,]2 C,G, DG,D,G,, | A,,2 A,,E, [A,,A,]E,A,E, | %32
 (9:8:6[E,A,^C]A,,A, [E,A,C]2 [A,,E,A,] [A,,E,A,]3 | A,,A,[CEA]A, A,[B,DA]A,F,, | %34
 C,F,[A,CF]F, F,[A,CF]F,[A,C] | G,,G,[CDG]G, G,[CDG]G,[CDG] | G,G,[DG]G, G,[DG]G,G,, | %37
 A,,A,[CE]A, A,[CE]A,F,, | C,F,[A,CF]F, F,[A,CF]F,[A,C] | G,,G,[CDG]G, G,[CDG]G,G,, | %40
 D,G,[B,DG]G, [B,DG]G,G,G,, | A,,A,[CE]A, A,[CE]A,F,, | C,F,[A,C]F, F,[A,C]F,F,, | %43
 G,,G,[B,D]G, G,[B,DG]G,[B,D] | G,,G,[B,D]G, G,[B,D]G,G,, | A,,A,[CE]A, A,[CE]A,F,, | %46
 C,F,[A,C]F, F,[A,C]F,F,, | G,,G,[B,DG]G, [B,D]D,[G,B,D][G,B,D] | %48
 D,[G,B,D]"_dim."D,G, [B,D]G,D,G,, | .[C,A,]2 .[A,CE]2 .[A,CE]2 .[A,CE]2 | %50
 .[C,A,]2 .[A,CE]2 .[A,CE]2 .[A,CE]2 | .[G,,F,]2 .[A,CF]2 .[A,CF]2 .[A,CF]2 | %52
 .[G,,G,]2 .[B,DG]2 .[B,DG]G,D,G,, | .[A,,A,]2 .[A,CE]2 .[A,CE]2 .[A,CE]2 | %54
 .[G,,G,]2 .[G,B,D]2 .[G,B,D]2 .[G,B,D]2 | .[F,,F,]2 .[A,CF]2 .[A,CF]2 .[A,CF]2 | %56
 G,,G,[G,B,D]D, G,[B,D]D,G,, | .[A,,A,]2 .[A,CE]2 .[A,CE]2 .[A,CE]A,, | %58
 [G,,G,] [B,DG]2 G, [B,DG]2 [B,DG]G, | [F,,F,]2 [A,CF]2 [A,CF]2 [A,CF]G, | %60
 [G,,G,][B,DG] [B,D]G,<G,, [B,DG]2 [G,,G,] | .[A,,A,]2 .[A,CE]2 .[A,CE]2 .[A,CE]2 | %62
 [G,,G,] [B,DG]2 G, [DG]B,G,G,, | .[F,,F,]2 .[A,CF]2 .[A,CF]2 .[A,CF]F, | %64
 [G,,G,][B,DG] G,D/G,/ [B,DG]G,D,G,, | [A,,,A,,][A,,E,][E,A,]E ACEA, | G,,D,B,D GDB,G, | %67
 F,,F,C[FA] [FA]C[FA]F, | F,,[G,B,DG][B,DG]G, DG,D,G,, | A,,E,A,C [EA]CEA, | G,,D,B,D GB,DD, | %71
 F,,C,F,A, CF,[CF]F, | G,,[G,B,D] [G,B,D]D,/G,,/ G,G,,G,G,, | [A,,A,]A,,E,A, [CE]A,A,,E, | %74
 [G,,G,]G,,D,G, [B,DG]G,[B,DG]G,, | [F,,F,]F,,C,F, [A,CF]F,F,F,, | [G,,G,]G,,G,G,, D,G,,[D,G,]G,, | %77
 [A,,A,]A,,E,A, [CEA]A,[CEA]A,, | [G,,G,]G,,D,G, [B,DG]G,G,G,, | %79
 [F,,F,]F,,C,F, [F,A,]F,,[C,F,]F,, | G,,D,[G,B,D]D, [G,B,D]D,[G,B,D]D, |!8va(!"_dim." GGFG FGFc- | %82
 c8!8va)! |] %83

